X:1
T:Title
%%score ( 1 2 ) { 3 | 4 }
L:1/8
Q:1/4=104
M:2/4
K:D
V:1 treble nm="Grand Piano, Soprano"
V:2 treble 
V:3 bass nm="Choir Pad, In Bethlehem, Noble Place"
V:4 bass 
V:1
 [A,D]2 [A,D]2- | [A,D][B,D] [A,D]2 | D2 [DF]2 | A2 z2 | z2 .A2 | .A2 .F2 | [DA]2 Bc | de [Ec]2 | %8
w: By~Frederick~Arthur~Gore\-Ouseley *||||||||
 AA B2 | A2 [Dd]2- | [Dd][FA] [GB]2 | A2 [Fd]2 | [Ee]2 [Ec]2 | [EA]2 d-[^Gd] | [Ac]2 [Ac]A | %15
w: |||||||
 [^GB]2 A2- | A2 AB | cd ed | cd [Ae]2 | [Af]2 [Fd]2 | z [GB] [EA]2 | [Dd]2 [Ge]2 | %22
w: |||||||
 f-[Gf] e-[Be-] | ed [Fd]2- | [Fd]4- | [Fd]2 z2 |] %26
w: ||||
V:2
 x4 | x4 | x4 | EF [GB]2 | z [GB] E-[EB] | E-[EG] D-[DG] | z2 G2 | F2 z2 | x4 | x4 | x4 | x4 | x4 | %13
 z2 .F2 | x4 | x4 | x4 | A2 A2 | A2 z2 | x4 | x4 | x4 | .F2 .A2 | G2 z2 | x4 | x4 |] %26
V:3
 F,2 F,2- | F,G, F,2 | F,2 B,2 | C2 D2 | z D A,2 | A,2[K:bass] A,2 | D2 G,2 | A,2 A,2 | A,A, B,2 | %9
 A,2[K:treble] D2- | DD D2 | D2 D2 | B,2 C2 | E2 A,B, | CD EF | ED C2- | C2 CD | ED CD | ED C2 | %19
 C2 D2 | z D C2 | A,2 B,C | D2 D2 | C2 D2- | D4- | D2 z2 |] %26
V:4
 D,2 D,2- | D,D, D,2 | D,C, B,,2 | A,,2 G,,2 | z B,, C,2 | C,2 C,2 | F,2 E,2 | D,2 A,,2 | z4 | z4 | %10
 z D, G,2 | F,2 B,2 | ^G,2 A,2 | C,2 D,2 | A,,2 E,2 | E,2 A,,2- | A,,2 A,2 | A,2 A,2 | A,2 A,2 | %19
 F,2 B,2 | z G, G,2 | F,2 E,2 | D,2 A,2 | [A,,A,]2 [D,A,]2- | [D,A,]4- | [D,A,]2 z2 |] %26

